X:1
T:Title
%%score { ( 1 4 ) | ( 2 3 ) }
L:1/8
M:4/4
K:G
V:1 treble nm="Grand Piano"
V:4 treble 
V:2 treble 
V:3 treble 
V:1
 z4 z2[Q:1/4=106] B>c | d2 G>F [B,DG]2 [CA]B | [Ec]2 E>^D E2 [DB]>[DA] | [DG]3 [DF] [DG]2 [DB]2 | %4
 B A3 z2 B>c | d2 G>F G2 AB | [Ec]2 E>^D E2 [DB]>[EA] | [DG]3 [DF] [GB]2 [FA]>A | A G3 z2 B2 | %9
 [FA]3 [FA] [Fd]2 [FA]>[FA] | [Ac] [GB]3 z2 [Gd]2 | [Ge]3 [Ge] ed B>G | [GB] [FA]3 z2 [Fc]2 | %13
 B2 d>e d2 BA | z D [CGc]>[Gd] [Ge]2 [EGc]2 | [DGB]3 [CFA] [Fd]2 [DF]2 | %16
[M:3/4] [CDA][B,DG]- [B,DG]4 |] %17
V:2
 z4 z2 [G,G]>[G,A,G] | [G,B,G]2 [G,D]->[G,A,D][K:bass] G,2 z D | %2
 [C,G,]2 [C,G,C]>[C,F,C] [C,G,C]2 [B,,G,]>[D,A,] | [G,B,]3 [D,A,] [B,,G,]2 [G,,G,]2 | %4
 z4 z2 [G,D]2 | z4 z2 .C2 | [C,G,]2 [C,G,C]>[C,F,C] [C,G,C]2 [B,,G,]>[C,C] | %7
 [D,B,]3 [D,A,] [D,D]2 [D,C]>[D,CD] | [G,CD] [G,B,]3 z2 [G,DG]2 | [D,D]3 [D,D] [D,D]2 [D,D]>[D,D] | %10
 [G,D] [G,D]3 z2 [G,B,]2 | z4[K:treble] .C2 z2[K:bass] | [D,D] [D,D]3 z2 [D,D]2 | %13
 [G,DG]2 [G,B,G]>[G,CG] [G,B,G]2 [DG][CF] | [G,B,]=F, E,>[D,B,] [C,C]2 C,2 | %15
 D,3 D, [D,A,]2 [D,C]2 |[M:3/4] [G,,G,][G,,G,]- [G,,G,]4 |] %17
V:3
 x8 | z2 B,2[K:bass] z2 G,2 | x8 | x8 | [D,G,D] [D,F,D]3 z2 z z/ A,/ | %5
 [G,B,D]2 [G,B,D]>[G,A,D] [G,B,D]2 G,-[G,D] | x8 | x8 | x8 | x8 | x8 | %11
 [C,C]3 [C,C][K:treble] [G,G]-[G,B,G] [G,G]>[K:bass][G,B,] | x8 | z4 z2 G,2 | x8 | x8 | %16
[M:3/4] x6 |] %17
V:4
 x8 | x8 | x8 | x8 | x8 | x8 | x8 | x8 | x8 | x8 | x8 | x8 | x8 | x8 | G2 z2 z4 | x8 |[M:3/4] x6 |] %17

